Numix/256x256/categories/applications-chat.svg

<?xml version="1.0" encoding="UTF-8" standalone="no"?>
<svg
   xmlns:dc="http://purl.org/dc/elements/1.1/"
   xmlns:cc="http://creativecommons.org/ns#"
   xmlns:rdf="http://www.w3.org/1999/02/22-rdf-syntax-ns#"
   xmlns:svg="http://www.w3.org/2000/svg"
   xmlns="http://www.w3.org/2000/svg"
   xmlns:sodipodi="http://sodipodi.sourceforge.net/DTD/sodipodi-0.dtd"
   xmlns:inkscape="http://www.inkscape.org/namespaces/inkscape"
   width="256"
   height="256"
   viewBox="0 0 256 256"
   id="svg2"
   version="1.1"
   inkscape:version="0.91 r"
   sodipodi:docname="applications-chat.svg">
  <metadata
     id="metadata14">
    <rdf:RDF>
      <cc:Work
         rdf:about="">
        <dc:format>image/svg+xml</dc:format>
        <dc:type
           rdf:resource="http://purl.org/dc/dcmitype/StillImage" />
      </cc:Work>
    </rdf:RDF>
  </metadata>
  <defs
     id="defs12" />
  <sodipodi:namedview
     pagecolor="#ffffff"
     bordercolor="#666666"
     borderopacity="1"
     objecttolerance="10"
     gridtolerance="10"
     guidetolerance="10"
     inkscape:pageopacity="0"
     inkscape:pageshadow="2"
     inkscape:window-width="1920"
     inkscape:window-height="1056"
     id="namedview10"
     showgrid="false"
     inkscape:zoom="0.921875"
     inkscape:cx="128"
     inkscape:cy="128"
     inkscape:window-x="0"
     inkscape:window-y="24"
     inkscape:window-maximized="1"
     inkscape:current-layer="svg2" />
  <g
     style="fill:#8ccd7c"
     id="g4"
     transform="translate(1.3339845,1.3339849)">
    <path
       d="m 74.246094,80.261719 c -25.703125,0 -46.539063,20.960941 -46.539063,46.796871 0,1.61328 0.02734,3.20313 0.183594,4.76563 0.390625,10.02344 -0.183594,24.5039 11.457031,59.60937 9.898438,29.86719 17.449219,29.24219 17.449219,29.24219 l 11.613281,-5.85937 c 0,0 -5.804687,-11.69141 -5.804687,-23.38282 0,-5.625 1.328125,-12.55468 2.734375,-18.28125 2.863281,0.54688 5.882812,0.72657 8.90625,0.72657 25.675781,0 46.507816,-20.96094 46.507816,-46.82032 0,-25.83593 -20.832035,-46.796871 -46.507816,-46.796871 z"
       id="path6"
       inkscape:connector-curvature="0" />
    <path
       d="m 179.08984,173.07422 c 25.70313,0 46.53516,-20.96485 46.53516,-46.79688 0,-1.61718 -0.0273,-3.20312 -0.18359,-4.76562 C 225.05078,111.48438 225.625,97.003906 213.98437,61.902344 204.08984,32.03125 196.53516,32.65625 196.53516,32.65625 l -11.61329,5.859375 c 0,0 5.8086,11.691406 5.8086,23.386719 0,5.625 -1.32813,12.550781 -2.73438,18.28125 -2.86718,-0.546875 -5.88672,-0.730469 -8.90625,-0.730469 -25.67968,0 -46.51172,20.964845 -46.51172,46.824215 0,25.83203 20.83204,46.79688 46.51172,46.79688 z"
       id="path8"
       inkscape:connector-curvature="0" />
  </g>
</svg>

<svg width="256" xmlns="http://www.w3.org/2000/svg" height="256" viewBox="0 0 256 256" xmlns:xlink="http://www.w3.org/1999/xlink">
<g style="fill:#8ccd7c">
<path d="M 74.246094 80.261719 C 48.542969 80.261719 27.707031 101.222656 27.707031 127.058594 C 27.707031 128.671875 27.734375 130.261719 27.890625 131.824219 C 28.28125 141.847656 27.707031 156.328125 39.347656 191.433594 C 49.246094 221.300781 56.796875 220.675781 56.796875 220.675781 L 68.410156 214.816406 C 68.410156 214.816406 62.605469 203.125 62.605469 191.433594 C 62.605469 185.808594 63.933594 178.878906 65.339844 173.152344 C 68.203125 173.699219 71.222656 173.878906 74.246094 173.878906 C 99.921875 173.878906 120.753906 152.917969 120.753906 127.058594 C 120.753906 101.222656 99.921875 80.261719 74.246094 80.261719 Z "/>
<path d="M 179.089844 173.074219 C 204.792969 173.074219 225.625 152.109375 225.625 126.277344 C 225.625 124.660156 225.597656 123.074219 225.441406 121.511719 C 225.050781 111.484375 225.625 97.003906 213.984375 61.902344 C 204.089844 32.03125 196.535156 32.65625 196.535156 32.65625 L 184.921875 38.515625 C 184.921875 38.515625 190.730469 50.207031 190.730469 61.902344 C 190.730469 67.527344 189.402344 74.453125 187.996094 80.183594 C 185.128906 79.636719 182.109375 79.453125 179.089844 79.453125 C 153.410156 79.453125 132.578125 100.417969 132.578125 126.277344 C 132.578125 152.109375 153.410156 173.074219 179.089844 173.074219 Z "/>
</g>
</svg>
